X: 23460
T: Letterfrack Lassies, The
R: reel
M: 4/4
K: Cmajor
"C"c3d cBGF|"C"EC"G"DF "C"EG C2|"C"c2 Gc "F6"defd|"G"efdc Bd G2|
"C"c3d cBGF|"C"EC"G"DF "C"EG Cc|"G"BG "Dm"(3ABc "G"BGFD|"C"EG"G"FD "C"C4:|
"C"c3e"Dm"f2ed|"C"cdef "G7"gdef|"C"g3c "F"fedc|"Gm"_BGFD "C"EGC2|
"C"cGce "Dm"f2ed|"C"cdef "G"g2 "Dm"dc|"G"BG "Dm"(3ABc "G"BGFD|"C"EG"G"FD "C"C4:|

